icons/caret-double-leftB.svg

<svg width="24" height="24" viewBox="0 0 24 24" fill="none" xmlns="http://www.w3.org/2000/svg">
<path d="M17.8875 7.96208L13.9875 11.8621C13.8875 11.9621 13.8875 12.1621 13.9875 12.1621L17.8875 16.0621C18.0875 16.2621 18.2875 16.0621 18.2875 15.8621V8.16208C18.2875 7.86208 18.0875 7.76208 17.8875 7.96208Z" fill="black"/>
<path fill-rule="evenodd" clip-rule="evenodd" d="M17.3572 7.43174C17.5617 7.22727 18.0037 6.95661 18.4979 7.20375C18.9485 7.42902 19.0375 7.89557 19.0375 8.16207V15.8621C19.0375 16.1805 18.8877 16.53 18.5786 16.7361C18.4092 16.849 18.1848 16.92 17.9353 16.8867C17.6896 16.854 17.4954 16.7306 17.3572 16.5924L13.5485 12.7837C13.4398 12.7135 13.3532 12.6209 13.2925 12.5223C13.1834 12.345 13.1625 12.1656 13.1625 12.0496C13.1625 11.8203 13.2453 11.5436 13.4572 11.3317L17.3572 7.43174ZM17.5375 9.37274L14.8982 12.0121L17.5375 14.6514V9.37274Z" fill="black"/>
<path d="M9.68753 7.96208L5.78752 11.8621C5.68752 11.9621 5.68752 12.1621 5.78752 12.1621L9.68753 16.0621C9.88753 16.2621 10.0875 16.0621 10.0875 15.8621V8.16208C10.0875 7.86208 9.88753 7.76208 9.68753 7.96208Z" fill="black"/>
<path fill-rule="evenodd" clip-rule="evenodd" d="M9.1572 7.43174C9.36168 7.22726 9.80366 6.95661 10.2979 7.20375C10.7485 7.42902 10.8375 7.89556 10.8375 8.16207V15.8621C10.8375 16.1806 10.6877 16.53 10.3786 16.7361C10.2092 16.849 9.98482 16.92 9.73528 16.8867C9.48959 16.854 9.29541 16.7306 9.1572 16.5924L5.34847 12.7837C5.23977 12.7135 5.15316 12.6209 5.09253 12.5223C4.98338 12.345 4.96252 12.1656 4.96252 12.0496C4.96252 11.8203 5.04533 11.5436 5.25719 11.3317L9.1572 7.43174ZM9.33753 9.37273L6.69818 12.0121L9.33753 14.6514V9.37273Z" fill="black"/>
</svg>

<svg xmlns="http://www.w3.org/2000/svg" fill="none" viewBox="0 0 24 24">
  <path fill="#000" d="m17.887 7.962-3.9 3.9c-.1.1-.1.3 0 .3l3.9 3.9c.2.2.4 0 .4-.2v-7.7c0-.3-.2-.4-.4-.2Z"/>
  <path fill="#000" fill-rule="evenodd" d="M17.357 7.432c.205-.205.647-.475 1.14-.228.451.225.54.692.54.958v7.7c0 .318-.15.668-.458.874a.934.934 0 0 1-.644.15 1.006 1.006 0 0 1-.578-.294l-3.808-3.808a.833.833 0 0 1-.256-.262.902.902 0 0 1-.13-.472c0-.23.082-.506.294-.718l3.9-3.9Zm.18 1.94-2.639 2.64 2.64 2.64v-5.28Z" clip-rule="evenodd"/>
  <path fill="#000" d="m9.688 7.962-3.9 3.9c-.1.1-.1.3 0 .3l3.9 3.9c.2.2.4 0 .4-.2v-7.7c0-.3-.2-.4-.4-.2Z"/>
  <path fill="#000" fill-rule="evenodd" d="M9.157 7.432c.205-.205.647-.475 1.14-.228.451.225.54.692.54.958v7.7c0 .319-.15.668-.458.874a.934.934 0 0 1-.644.15 1.006 1.006 0 0 1-.578-.294l-3.809-3.808a.832.832 0 0 1-.255-.262.901.901 0 0 1-.13-.472c0-.23.082-.506.294-.718l3.9-3.9Zm.18 1.94-2.639 2.64 2.64 2.64v-5.28Z" clip-rule="evenodd"/>
</svg>
